packages/admin/admin-icons/icons/rte-text-placeholder.svg

<svg width="16" height="16" viewBox="0 0 16 16" fill="none" xmlns="http://www.w3.org/2000/svg">
<path fill-rule="evenodd" clip-rule="evenodd" d="M5.29904 16L5.68955 14.8472C4.75124 14.542 4.26582 13.7081 4.23327 12.3454V10.604C4.23327 9.36672 3.76412 8.49736 2.82581 7.99591C3.76412 7.49991 4.23327 6.63873 4.23327 5.41237V3.6464C4.26582 2.28377 4.75124 1.44984 5.68955 1.14461L5.29904 0C4.34446 0.272526 3.62175 0.711293 3.1309 1.3163C2.64005 1.92131 2.38649 2.71436 2.37022 3.69545V5.42872C2.37022 6.66053 1.84683 7.27644 0.800049 7.27644V8.73173C1.84683 8.73173 2.37022 9.34492 2.37022 10.5713V12.3127C2.40819 14.2313 3.38446 15.4604 5.29904 16ZM10.6929 16C11.6746 15.722 12.4082 15.271 12.8936 14.6469C13.379 14.0228 13.6218 13.2012 13.6218 12.1819V10.5713C13.6218 9.34492 14.1479 8.73173 15.2001 8.73173V7.27644C14.1479 7.27644 13.6218 6.66326 13.6218 5.43689V3.80174C13.6218 2.79339 13.3804 1.97718 12.8977 1.35309C12.415 0.729007 11.6801 0.277977 10.6929 0L10.3024 1.14461C11.257 1.45529 11.7451 2.30557 11.7668 3.69545V5.38784C11.7668 6.66326 12.2604 7.53534 13.2475 8.00409C12.2604 8.47283 11.7668 9.33674 11.7668 10.5958V12.2964C11.7451 13.6863 11.257 14.5365 10.3024 14.8472L10.6929 16Z" fill="#242424"/>
</svg>

<svg width="16" height="16" fill="none" viewBox="0 0 16 16">
  <path fill="#242424" fill-rule="evenodd" d="m5.299 16.001.39-1.153c-.938-.305-1.423-1.139-1.456-2.502v-1.741c0-1.237-.469-2.107-1.407-2.608.938-.496 1.407-1.357 1.407-2.584V3.647c.033-1.362.518-2.196 1.456-2.501L5.3 0c-.955.273-1.677.711-2.168 1.316-.491.605-.745 1.398-.76 2.38V5.43c0 1.232-.524 1.847-1.571 1.847v1.456c1.047 0 1.57.613 1.57 1.84v1.74c.038 1.92 1.014 3.148 2.929 3.688Zm5.394 0c.982-.278 1.715-.729 2.2-1.353.486-.624.729-1.446.729-2.465v-1.61c0-1.227.526-1.84 1.578-1.84V7.277c-1.052 0-1.578-.613-1.578-1.84V3.804c0-1.009-.242-1.825-.724-2.449C12.415.73 11.68.28 10.693.001l-.39 1.145c.954.31 1.442 1.16 1.464 2.55V5.39c0 1.275.493 2.147 1.48 2.616-.987.469-1.48 1.333-1.48 2.592v1.7c-.022 1.39-.51 2.24-1.465 2.551l.39 1.153Z" clip-rule="evenodd"/>
</svg>
